src/lib/assets/favicon.svg

<svg width="385" height="385" viewBox="0 0 385 385" fill="none" xmlns="http://www.w3.org/2000/svg">
<rect x="73" y="25" width="240" height="336" rx="11" fill="white"/>
<rect x="73" y="25" width="240" height="336" rx="11" fill="white"/>
<path d="M282 289.385C282 287.516 283.516 286 285.385 286H289.617C291.019 286 292.156 287.137 292.156 288.539C292.156 289.941 291.019 291.078 289.617 291.078C288.215 291.078 287.078 292.215 287.078 293.617C287.078 295.019 285.941 296.156 284.539 296.156C283.137 296.156 282 295.019 282 293.617V289.385Z" stroke="#002FA7" stroke-width="1.625"/>
<path d="M285.385 286C283.516 286 282 284.484 282 282.615V278.383C282 276.981 283.137 275.844 284.539 275.844C285.941 275.844 287.078 276.981 287.078 278.383C287.078 279.785 288.215 280.922 289.617 280.922C291.019 280.922 292.156 282.059 292.156 283.461C292.156 284.863 291.019 286 289.617 286H285.385Z" stroke="#F67CA2" stroke-width="1.625"/>
<path d="M282 289.385C282 287.516 280.484 286 278.615 286H274.383C272.981 286 271.844 287.137 271.844 288.539C271.844 289.941 272.981 291.078 274.383 291.078C275.785 291.078 276.922 292.215 276.922 293.617C276.922 295.019 278.059 296.156 279.461 296.156C280.863 296.156 282 295.019 282 293.617V289.385Z" stroke="#F67CA2" stroke-width="1.625"/>
<path d="M278.615 286C280.484 286 282 284.484 282 282.615V278.383C282 276.981 280.863 275.844 279.461 275.844C278.059 275.844 276.922 276.981 276.922 278.383C276.922 279.785 275.785 280.922 274.383 280.922C272.981 280.922 271.844 282.059 271.844 283.461C271.844 284.863 272.981 286 274.383 286H278.615Z" stroke="#002FA7" stroke-width="1.625"/>
<path d="M290.926 309C291.088 309 291.17 309.081 291.17 309.244L291.072 342.754C291.072 342.884 291.007 342.949 290.877 342.949L281.756 342.998C279.967 343.031 278.341 342.608 276.878 341.73C275.382 340.852 274.195 339.665 273.317 338.169C272.439 336.706 272 335.08 272 333.291V319.292C272 317.406 272.455 315.683 273.366 314.122C274.276 312.593 275.496 311.374 277.024 310.463C278.552 309.553 280.276 309.081 282.195 309.049L290.926 309ZM285.219 315H282.195C280.991 315 279.983 315.422 279.17 316.268C278.325 317.113 277.902 318.121 277.902 319.292V333.34C277.902 334.381 278.292 335.275 279.073 336.023C279.821 336.803 280.715 337.177 281.756 337.145L285.17 337.096L285.219 315Z" fill="#222222"/>
<path d="M104 96.6146C104 98.4843 102.484 100 100.615 100H96.3828C94.9805 100 93.8438 98.8632 93.8438 97.4609C93.8438 96.0587 94.9805 94.9219 96.3828 94.9219C97.7851 94.9219 98.9219 93.7851 98.9219 92.3828C98.9219 90.9805 100.059 89.8438 101.461 89.8438C102.863 89.8438 104 90.9805 104 92.3828V96.6146Z" stroke="#002FA7" stroke-width="1.625"/>
<path d="M100.615 100C102.484 100 104 101.516 104 103.385V107.617C104 109.019 102.863 110.156 101.461 110.156C100.059 110.156 98.9219 109.019 98.9219 107.617C98.9219 106.215 97.7851 105.078 96.3828 105.078C94.9805 105.078 93.8438 103.941 93.8438 102.539C93.8438 101.137 94.9805 100 96.3828 100H100.615Z" stroke="#F67CA2" stroke-width="1.625"/>
<path d="M104 96.6146C104 98.4843 105.516 100 107.385 100H111.617C113.019 100 114.156 98.8632 114.156 97.4609C114.156 96.0587 113.019 94.9219 111.617 94.9219C110.215 94.9219 109.078 93.7851 109.078 92.3828C109.078 90.9805 107.941 89.8438 106.539 89.8438C105.137 89.8438 104 90.9805 104 92.3828V96.6146Z" stroke="#F67CA2" stroke-width="1.625"/>
<path d="M107.385 100C105.516 100 104 101.516 104 103.385V107.617C104 109.019 105.137 110.156 106.539 110.156C107.941 110.156 109.078 109.019 109.078 107.617C109.078 106.215 110.215 105.078 111.617 105.078C113.019 105.078 114.156 103.941 114.156 102.539C114.156 101.137 113.019 100 111.617 100H107.385Z" stroke="#002FA7" stroke-width="1.625"/>
<path d="M97.1954 77C97.0651 77 97 76.9186 97 76.7557L97.0489 43.2443C97.0489 43.0814 97.1303 43 97.2931 43H102.716C102.878 43 102.96 43.0814 102.96 43.2443L102.911 70.9914H112.974C113.137 70.9914 113.218 71.0728 113.218 71.2356V76.7557C113.218 76.9186 113.137 77 112.974 77H97.1954Z" fill="#222222"/>
<path d="M193 179.979C193 187.17 187.17 193 179.979 193H163.703C158.31 193 153.938 188.628 153.938 183.234C153.938 177.841 158.31 173.469 163.703 173.469C169.097 173.469 173.469 169.097 173.469 163.703C173.469 158.31 177.841 153.938 183.234 153.938C188.628 153.938 193 158.31 193 163.703V179.979Z" stroke="#002FA7" stroke-width="6.25"/>
<path d="M179.979 193C187.17 193 193 198.83 193 206.021V222.297C193 227.69 188.628 232.062 183.234 232.062C177.841 232.062 173.469 227.69 173.469 222.297C173.469 216.903 169.097 212.531 163.703 212.531C158.31 212.531 153.938 208.159 153.938 202.766C153.938 197.372 158.31 193 163.703 193H179.979Z" stroke="#F67CA2" stroke-width="6.25"/>
<path d="M193 179.979C193 187.17 198.83 193 206.021 193H222.297C227.69 193 232.062 188.628 232.062 183.234C232.062 177.841 227.69 173.469 222.297 173.469C216.903 173.469 212.531 169.097 212.531 163.703C212.531 158.31 208.159 153.938 202.766 153.938C197.372 153.938 193 158.31 193 163.703V179.979Z" stroke="#F67CA2" stroke-width="6.25"/>
<path d="M206.021 193C198.83 193 193 198.83 193 206.021V222.297C193 227.69 197.372 232.063 202.766 232.063C208.159 232.063 212.531 227.69 212.531 222.297C212.531 216.903 216.903 212.531 222.297 212.531C227.69 212.531 232.063 208.159 232.063 202.766C232.063 197.372 227.69 193 222.297 193H206.021Z" stroke="#002FA7" stroke-width="6.25"/>
</svg>

<svg xmlns="http://www.w3.org/2000/svg" width="385" height="385" fill="none" viewBox="0 0 385 385"><rect width="240" height="336" x="73" y="25" fill="#fff" rx="11"/><rect width="240" height="336" x="73" y="25" fill="#fff" rx="11"/><path stroke="#002fa7" stroke-width="1.625" d="M282 289.385a3.386 3.386 0 0 1 3.385-3.385h4.232a2.54 2.54 0 0 1 0 5.078 2.54 2.54 0 0 0-2.539 2.539 2.54 2.54 0 0 1-5.078 0z"/><path stroke="#f67ca2" stroke-width="1.625" d="M285.385 286a3.386 3.386 0 0 1-3.385-3.385v-4.232a2.54 2.54 0 0 1 5.078 0 2.54 2.54 0 0 0 2.539 2.539 2.54 2.54 0 0 1 0 5.078zM282 289.385a3.386 3.386 0 0 0-3.385-3.385h-4.232a2.54 2.54 0 0 0 0 5.078 2.54 2.54 0 0 1 2.539 2.539 2.54 2.54 0 0 0 5.078 0z"/><path stroke="#002fa7" stroke-width="1.625" d="M278.615 286a3.386 3.386 0 0 0 3.385-3.385v-4.232a2.54 2.54 0 0 0-5.078 0 2.54 2.54 0 0 1-2.539 2.539 2.54 2.54 0 0 0 0 5.078z"/><path fill="#222" d="M290.926 309q.243 0 .244.244l-.098 33.51q0 .195-.195.195l-9.121.049q-2.683.05-4.878-1.268a9.84 9.84 0 0 1-3.561-3.561Q272 335.975 272 333.291v-13.999q0-2.829 1.366-5.17a10.4 10.4 0 0 1 3.658-3.659q2.292-1.366 5.171-1.414zm-5.707 6h-3.024q-1.806 0-3.025 1.268-1.268 1.267-1.268 3.024v14.048q0 1.561 1.171 2.683 1.122 1.17 2.683 1.122l3.414-.049z"/><path stroke="#002fa7" stroke-width="1.625" d="M104 96.615a3.386 3.386 0 0 1-3.385 3.385h-4.232a2.539 2.539 0 0 1 0-5.078 2.54 2.54 0 0 0 2.539-2.54 2.54 2.54 0 0 1 5.078 0z"/><path stroke="#f67ca2" stroke-width="1.625" d="M100.615 100a3.386 3.386 0 0 1 3.385 3.385v4.232a2.54 2.54 0 0 1-5.078 0 2.54 2.54 0 0 0-2.54-2.539 2.54 2.54 0 0 1 0-5.078zM104 96.615a3.386 3.386 0 0 0 3.385 3.385h4.232a2.54 2.54 0 0 0 0-5.078 2.54 2.54 0 0 1-2.539-2.54 2.54 2.54 0 0 0-5.078 0z"/><path stroke="#002fa7" stroke-width="1.625" d="M107.385 100a3.386 3.386 0 0 0-3.385 3.385v4.232a2.54 2.54 0 0 0 5.078 0 2.54 2.54 0 0 1 2.539-2.539 2.54 2.54 0 0 0 0-5.078z"/><path fill="#222" d="M97.195 77Q97 77 97 76.756l.049-33.512q0-.244.244-.244h5.423q.244 0 .244.244l-.049 27.747h10.063q.244 0 .244.245v5.52q0 .244-.244.244z"/><path stroke="#002fa7" stroke-width="6.25" d="M193 179.979c0 7.191-5.83 13.021-13.021 13.021h-16.276c-5.393 0-9.765-4.372-9.765-9.766 0-5.393 4.372-9.765 9.765-9.765a9.766 9.766 0 0 0 9.766-9.766c0-5.393 4.372-9.765 9.765-9.765S193 158.31 193 163.703z"/><path stroke="#f67ca2" stroke-width="6.25" d="M179.979 193c7.191 0 13.021 5.83 13.021 13.021v16.276c0 5.393-4.372 9.765-9.766 9.765-5.393 0-9.765-4.372-9.765-9.765a9.766 9.766 0 0 0-9.766-9.766c-5.393 0-9.765-4.372-9.765-9.765S158.31 193 163.703 193zM193 179.979c0 7.191 5.83 13.021 13.021 13.021h16.276c5.393 0 9.765-4.372 9.765-9.766 0-5.393-4.372-9.765-9.765-9.765a9.766 9.766 0 0 1-9.766-9.766c0-5.393-4.372-9.765-9.765-9.765S193 158.31 193 163.703z"/><path stroke="#002fa7" stroke-width="6.25" d="M206.021 193C198.83 193 193 198.83 193 206.021v16.276c0 5.393 4.372 9.766 9.766 9.766 5.393 0 9.765-4.373 9.765-9.766a9.766 9.766 0 0 1 9.766-9.766c5.393 0 9.766-4.372 9.766-9.765S227.69 193 222.297 193z"/></svg>
